public/icon/copy.svg

<svg width="17" height="17" viewBox="0 0 17 17" fill="none" xmlns="http://www.w3.org/2000/svg">
<path fill-rule="evenodd" clip-rule="evenodd" d="M11.5547 11.2283H11.5549H16.1341H16.9422V10.4202V1.26194V0.453857H16.1341H6.97582H6.16774V1.26194V5.84106V5.84121H1.58835H0.780273V6.64929V15.8075V16.6156H1.58835H10.7466H11.5547V15.8075V11.2283ZM10.7469 5.84106H6.97582V1.26194H16.1341V10.4202H11.5549V6.64914V5.84106H10.7469ZM1.58835 6.64929H10.7466V15.8075H1.58835V6.64929Z" fill="white"/>
</svg>

<svg width="17" height="17" fill="none" xmlns="http://www.w3.org/2000/svg"><path fill-rule="evenodd" clip-rule="evenodd" d="M11.555 11.228H16.942V.454H6.168v5.388H.78V16.615h10.775v-5.388Zm-.808-5.387H6.976v-4.58h9.158v9.16h-4.58V5.84h-.807Zm-9.159.808h9.159v9.159H1.588V6.649Z" fill="#fff"/></svg>
